img/svg/stone_pattern_yellow2.svg

<svg width="620" height="649" viewBox="0 0 620 649" fill="none" xmlns="http://www.w3.org/2000/svg">
<path opacity="0.1" fill-rule="evenodd" clip-rule="evenodd" d="M318.927 0.00018803C388.066 0.151444 423.976 83.1026 469.611 135.041C504.698 174.976 529.809 218.548 552.985 266.389C580.451 323.085 632.285 378.173 616.999 439.288C601.648 500.664 531.669 527.722 478.895 562.615C428.687 595.811 378.297 626.463 318.927 636.367C250 647.866 173.317 661.596 114.833 623.35C55.6252 584.63 36.3562 508.498 18.6576 440.003C1.9277 375.256 -12.4317 304.403 16.8906 244.301C44.8585 186.976 118.172 174.493 167.764 134.381C221.498 90.9185 249.817 -0.151007 318.927 0.00018803Z" fill="#CA793F"/>
</svg>

<svg xmlns="http://www.w3.org/2000/svg" width="620" height="649" fill="none" xmlns:v="https://vecta.io/nano"><path opacity=".1" fill-rule="evenodd" d="M318.927 0c69.139.151 105.049 83.102 150.684 135.041 35.087 39.935 60.198 83.507 83.374 131.348 27.466 56.696 79.3 111.784 64.014 172.899-15.351 61.376-85.33 88.434-138.104 123.327-50.208 33.196-100.598 63.848-159.968 73.752-68.927 11.499-145.61 25.229-204.094-13.017-59.208-38.72-78.477-114.852-96.175-183.347-16.73-64.747-31.089-135.6-1.767-195.702 27.968-57.325 101.281-69.808 150.873-109.92C221.498 90.919 249.817-.151 318.927 0z" fill="#ca793f"/></svg>
